X:1
T:Da Shaalds o Foula
M:6/8
L:1/8
Q:3/8=120
O:Shetland
K:DDor
% D mixolydian/dorian/minor pentatonic
D|E2G G2e|edB BAG|G2B A2B|G2A GE
D|E2G G2e|edB BAG|G2B A2B|d3  D2:|
D|edB ABd|edB ABd|g2B A2B|G2A GE
D|edB ABd|edB ABd|g2B A2B|d3  D2:|
